X: 13
T: Rolling In The Ryegrass
R: reel
M: 4/4
L: 1/8
K: Amaj
|:e2ef ecAc|d2fd adfd|efec Acec|1dfed B2A2:|2dfed B2AF||
|:EFAB c2cA|d2dB cBAF|EFAB cAce|1dcAc BAFD:|2dcAc B2AF||
|:"-Variation"E2EF EAcA|D2FD ADFD|EFEA cEAc|1DFED EDEF:|2DFED E3F||
|:EFAB c2cA|d2dB cBAF|EFAB cAce|1dcAc BAFD:|2dcAc B2A2||


Tune 87	Setting 12614

